icons/svg/skype-business.svg

﻿<?xml version="1.0" encoding="utf-8"?>
<!DOCTYPE svg PUBLIC "-//W3C//DTD SVG 1.1//EN" "http://www.w3.org/Graphics/SVG/1.1/DTD/svg11.dtd">
<svg xmlns="http://www.w3.org/2000/svg" xmlns:xlink="http://www.w3.org/1999/xlink" version="1.1" baseProfile="full" width="24" height="24" viewBox="0 0 24.00 24.00" enable-background="new 0 0 24.00 24.00" xml:space="preserve">
	<path fill="#000000" fill-opacity="1" stroke-width="0.2" stroke-linejoin="miter" d="M 12.0344,16.5341C 9.36794,16.5341 8.17531,15.2235 8.17531,14.2408C 8.17531,13.7366 8.5472,13.3839 9.06018,13.3839C 10.2009,13.3839 9.90575,15.0222 12.0344,15.0222C 13.124,15.0222 13.726,14.4305 13.726,13.8246C 13.726,13.4603 13.5463,13.057 12.8286,12.8802L 10.4573,12.2879C 8.5472,11.809 8.20063,10.7767 8.20063,9.80599C 8.20063,7.79067 10.098,7.03409 11.88,7.03409C 13.5212,7.03409 15.456,7.94109 15.456,9.15021C 15.456,9.66836 15.0074,9.96945 14.4951,9.96945C 13.5212,9.96945 13.7004,8.62175 11.7392,8.62175C 10.7656,8.62175 10.2263,9.06244 10.2263,9.69318C 10.2263,10.3227 10.9954,10.5235 11.6625,10.6759L 13.418,11.0655C 15.3407,11.4937 15.8284,12.6163 15.8284,13.6737C 15.8284,15.3112 14.5713,16.5341 12.0344,16.5341 Z M 18.0104,5.9896C 20.0657,8.04485 20.8484,10.8907 20.3586,13.5482C 20.767,14.2726 21,15.1091 21,16C 21,18.7614 18.7614,21 16,21C 15.1091,21 14.2726,20.767 13.5482,20.3586C 10.8907,20.8484 8.04485,20.0657 5.98959,18.0104C 3.93435,15.9552 3.15161,13.1093 3.64139,10.4518C 3.233,9.72736 3,8.89089 3,8C 3,5.23858 5.23858,3.00001 8,3.00001C 8.89089,3.00001 9.72736,3.233 10.4518,3.64139C 13.1093,3.15161 15.9552,3.93435 18.0104,5.9896 Z M 8,5.00001C 6.34314,5.00001 5,6.34315 5,8C 5,8.78814 5.30391,9.50528 5.80094,10.0406C 5.0957,12.2784 5.62999,14.8224 7.40381,16.5962C 9.17762,18.37 11.7216,18.9043 13.9594,18.1991C 14.4947,18.6961 15.2119,19 16,19C 17.6569,19 19,17.6569 19,16C 19,15.2119 18.6961,14.4947 18.1991,13.9594C 18.9043,11.7216 18.37,9.17763 16.5962,7.40381C 14.8224,5.62999 12.2784,5.0957 10.0406,5.80094C 9.50527,5.30392 8.78813,5.00001 8,5.00001 Z "/>
</svg>

<svg xmlns="http://www.w3.org/2000/svg" version="1.1" baseProfile="full" width="24" height="24" viewBox="0 0 24.00 24.00" xml:space="preserve"><path fill="#000" fill-opacity="1" stroke-width=".2" stroke-linejoin="miter" d="M12.034 16.534c-2.666 0-3.86-1.31-3.86-2.293 0-.503.373-.856.886-.856 1.14 0 .846 1.638 2.974 1.638 1.09 0 1.692-.59 1.692-1.197 0-.365-.18-.768-.897-.945l-2.373-.592c-1.91-.48-2.256-1.51-2.256-2.482 0-2.015 1.898-2.772 3.68-2.772 1.64 0 3.576.907 3.576 2.116 0 .518-.45.82-.96.82-.975 0-.796-1.348-2.757-1.348-.974 0-1.514.44-1.514 1.07 0 .63.77.832 1.436.984l1.756.39c1.923.428 2.41 1.55 2.41 2.608 0 1.637-1.257 2.86-3.794 2.86zM18.01 5.99c2.056 2.055 2.838 4.9 2.35 7.558.407.725.64 1.56.64 2.452 0 2.76-2.24 5-5 5-.89 0-1.727-.233-2.452-.64-2.657.488-5.503-.294-7.558-2.35-2.056-2.055-2.838-4.9-2.35-7.558C3.234 9.727 3 8.892 3 8c0-2.76 2.24-5 5-5 .89 0 1.727.233 2.452.64 2.657-.488 5.503.294 7.558 2.35zM8 5C6.343 5 5 6.343 5 8c0 .788.304 1.505.8 2.04-.704 2.238-.17 4.782 1.604 6.556s4.318 2.308 6.555 1.603c.535.496 1.252.8 2.04.8 1.657 0 3-1.343 3-3 0-.788-.304-1.505-.8-2.04.704-2.238.17-4.782-1.604-6.556S12.278 5.096 10.04 5.8C9.506 5.305 8.79 5 8 5z"/></svg>
